public/assets/song-lyrics.svg

<?xml version="1.0" encoding="utf-8"?>
<!DOCTYPE svg PUBLIC "-//W3C//DTD SVG 1.1//EN" "http://www.w3.org/Graphics/SVG/1.1/DTD/svg11.dtd">
<svg version="1.1" xmlns="http://www.w3.org/2000/svg" xmlns:xlink="http://www.w3.org/1999/xlink" x="0px" y="0px" viewBox="0 0 256 256" enable-background="new 0 0 256 256" xml:space="preserve">
<metadata> Svg Vector Icons : http://www.onlinewebfonts.com/icon </metadata>
<g><g><path fill="#000000" d="M228.3,64.9l-19-14.5c-0.5-0.4-1.1-0.6-1.6-0.8V31.7c0-14.4-8-21.7-23.8-21.7H47.6C29,10,25.1,21.8,25.1,31.8v192.7c0,8.1,3.3,12.9,6,15.6c5.8,5.6,13.4,5.9,15.2,5.9c0.2,0,0.3,0,0.3,0h93.9h12.5h2.8c15.3,0,27.7-4.6,36.8-13.7c14.8-14.9,15-36.2,15-37.1V103l21.9-28.8C231.8,71.3,231.2,67.1,228.3,64.9z M169.1,231c3.8-9.3,3.4-17.7,3.1-22.2c0-0.3,0-0.7,0-0.9c2.5-2.2,11.5-4.4,21.4-5.5C191.9,211.5,186.5,226.1,169.1,231z M194.3,189c-13.7,1.2-31.7,4.6-35.1,14.9c-0.6,1.7-0.5,3.4-0.4,5.7c0.3,5.1,0.7,14.3-6.2,23.1H46.5c-1.1,0-4.3-0.4-6.2-2.2c-1.3-1.3-1.9-3.2-1.9-6V31.8c0-6.3,1.4-8.5,9.2-8.5h136.2c10.1,0,10.5,2.7,10.5,8.5v27.3l-32.9,43.2l-1.2,2.6c-1.2-1.4-3-2.4-5-2.4H73c-3.7,0-6.6,3-6.6,6.6c0,3.7,3,6.6,6.6,6.6h82.3c0.5,0,0.9-0.2,1.3-0.3c-0.7,4.1-1.3,8.5-1.6,12.4v0.1H73.8c-3.7,0-6.6,3-6.6,6.6c0,3.7,3,6.6,6.6,6.6h82.3c1.6,0,3-0.7,4.2-1.6c0.3,0,0.6,0.1,0.9,0.1c0.7,0,1.3-0.1,2-0.3c6.6-2.1,22.3-7.5,26.9-13.6l4.2-5.5L194.3,189L194.3,189z M169.4,108.1l13.8,9.3L165.4,128L169.4,108.1z M188.9,111.4l-14.1-10.5l31.9-40.9l13.2,10L188.9,111.4z"/><path fill="#000000" d="M73,64.3h48.4c3.7,0,6.6-3,6.6-6.6c0-3.7-3-6.6-6.6-6.6H73c-3.7,0-6.6,3-6.6,6.6C66.3,61.3,69.3,64.3,73,64.3z"/><path fill="#000000" d="M73,89.9h82.3c3.7,0,6.6-3,6.6-6.6c0-3.7-3-6.6-6.6-6.6H73c-3.7,0-6.6,3-6.6,6.6C66.3,86.9,69.3,89.9,73,89.9z"/></g></g>
</svg>

<?xml version="1.0" encoding="UTF-8" standalone="no"?>
<!DOCTYPE svg PUBLIC "-//W3C//DTD SVG 1.1//EN" "http://www.w3.org/Graphics/SVG/1.1/DTD/svg11.dtd">
<svg width="100%" height="100%" viewBox="0 0 248 256" version="1.1" xmlns="http://www.w3.org/2000/svg" xmlns:xlink="http://www.w3.org/1999/xlink" xml:space="preserve" xmlns:serif="http://www.serif.com/" style="fill-rule:evenodd;clip-rule:evenodd;stroke-linejoin:round;stroke-miterlimit:2;">
    <g>
        <g>
            <path d="M228.3,64.9L209.3,50.4C208.8,50 208.2,49.8 207.7,49.6L207.7,31.7C207.7,17.3 199.7,10 183.9,10L47.6,10C29,10 25.1,21.8 25.1,31.8L25.1,224.5C25.1,232.6 28.4,237.4 31.1,240.1C36.9,245.7 44.5,246 46.3,246L155.8,246C171.1,246 183.5,241.4 192.6,232.3C207.4,217.4 207.6,196.1 207.6,195.2L207.6,103L229.5,74.2C231.8,71.3 231.2,67.1 228.3,64.9ZM169.1,231C172.9,221.7 172.5,213.3 172.2,208.8L172.2,207.9C174.7,205.7 183.7,203.5 193.6,202.4C191.9,211.5 186.5,226.1 169.1,231ZM194.3,189C180.6,190.2 162.6,193.6 159.2,203.9C158.6,205.6 158.7,207.3 158.8,209.6C159.1,214.7 159.5,223.9 152.6,232.7L46.5,232.7C45.4,232.7 42.2,232.3 40.3,230.5C39,229.2 38.4,227.3 38.4,224.5L38.4,31.8C38.4,25.5 39.8,23.3 47.6,23.3L183.8,23.3C193.9,23.3 194.3,26 194.3,31.8L194.3,59.1L161.4,102.3L160.2,104.9C159,103.5 157.2,102.5 155.2,102.5L73,102.5C69.3,102.5 66.4,105.5 66.4,109.1C66.4,112.8 69.4,115.7 73,115.7L155.3,115.7C155.8,115.7 156.2,115.5 156.6,115.4C155.9,119.5 155.3,123.9 155,127.8L155,127.9L73.8,127.9C70.1,127.9 67.2,130.9 67.2,134.5C67.2,138.2 70.2,141.1 73.8,141.1L156.1,141.1C157.7,141.1 159.1,140.4 160.3,139.5C160.6,139.5 160.9,139.6 161.2,139.6C161.9,139.6 162.5,139.5 163.2,139.3C169.8,137.2 185.5,131.8 190.1,125.7L194.3,120.2L194.3,189ZM169.4,108.1L183.2,117.4L165.4,128L169.4,108.1ZM188.9,111.4L174.8,100.9L206.7,60L219.9,70L188.9,111.4Z" style="fill-rule:nonzero;"/>
            <path d="M73,64.3L121.4,64.3C125.1,64.3 128,61.3 128,57.7C128,54 125,51.1 121.4,51.1L73,51.1C69.3,51.1 66.4,54.1 66.4,57.7C66.3,61.3 69.3,64.3 73,64.3Z" style="fill-rule:nonzero;"/>
            <path d="M73,89.9L155.3,89.9C159,89.9 161.9,86.9 161.9,83.3C161.9,79.6 158.9,76.7 155.3,76.7L73,76.7C69.3,76.7 66.4,79.7 66.4,83.3C66.3,86.9 69.3,89.9 73,89.9Z" style="fill-rule:nonzero;"/>
        </g>
    </g>
</svg>
